public/logo.svg

<svg width="60" height="70" viewBox="0 0 60 70" fill="none" xmlns="http://www.w3.org/2000/svg">
<path fill-rule="evenodd" clip-rule="evenodd" d="M16.9305 23.3833C14.764 23.3833 13.6927 25.7216 13.6927 27.8882C13.6927 30.0547 14.764 32.393 16.9305 32.393C19.0971 32.393 20.1684 30.0547 20.1684 27.8882C20.1684 25.7216 19.0971 23.3833 16.9305 23.3833ZM16.9303 24.932C15.5759 24.8346 15.0702 26.5309 15.1002 27.8883C15.1291 29.1994 15.6224 30.8002 16.9303 30.7039C18.1817 30.6117 18.4533 29.143 18.4788 27.8883C18.5053 26.5853 18.2302 25.0255 16.9303 24.932Z" fill="#214C9E"/>
<path d="M5.10513 46.3301C4.77414 46.0404 5.10513 45.2039 5.10513 45.2039C5.10513 45.2039 8.35553 42.4516 10.0323 40.4174C11.7091 38.3833 13.6925 34.7864 13.6925 34.7864C13.6925 34.7864 14.7343 34.4962 14.678 35.2087C14.2799 40.2416 6.09057 46.3301 6.09057 46.3301C6.09057 46.3301 5.39475 46.5835 5.10513 46.3301Z" fill="#214C9E"/>
<path d="M7.90818 65.2275C7.25615 65.1513 7.15468 63.9111 7.15468 63.9111C7.15468 63.9111 9.81337 58.1181 10.7739 54.4115C11.7344 50.705 12.5663 44.9224 12.5663 44.9224C12.5663 44.9224 13.5754 43.6225 13.9741 44.5C16.7903 50.6987 9.27251 64.4467 9.27251 64.4467C9.27251 64.4467 8.47871 65.2943 7.90818 65.2275Z" fill="#214C9E"/>
<path d="M16.7195 68.8563C16.0738 68.9745 15.6131 67.8186 15.6131 67.8186C15.6131 67.8186 16.4563 61.5007 16.2878 57.6754C16.1192 53.8501 15.2189 48.0777 15.2189 48.0777C15.2189 48.0777 15.8025 46.5391 16.4409 47.2612C20.9509 52.3615 17.7949 67.7096 17.7949 67.7096C17.7949 67.7096 17.2846 68.7528 16.7195 68.8563Z" fill="#214C9E"/>
<path d="M24.2507 40.136C21.2858 39.7412 18.0566 35.6311 18.0566 35.6311C18.0566 35.6311 17.55 35.8008 17.3527 36.0534C17.0142 36.4867 17.3527 37.4612 17.3527 37.4612C17.3527 37.4612 21.4661 41.6326 24.8138 41.6845C26.5072 41.7108 29.0371 40.6991 29.0371 40.6991C29.6003 40.6991 30.2564 41.0701 30.8672 40.6991C31.4152 40.3662 31.4773 39.7606 31.7119 39.2913C31.7119 39.2913 30.0797 39.2266 29.0371 39.2913C27.1427 39.4088 26.1322 40.3865 24.2507 40.136Z" fill="#214C9E"/>
<path d="M29.7412 38.4467L33.4014 28.17C33.4014 28.17 33.0272 28.0458 32.8383 27.8884C32.2048 27.3605 32.8383 25.7768 32.8383 25.7768C32.8383 25.7768 32.87 25.4046 32.9791 25.2137C33.0774 25.0416 33.4014 24.9321 33.4014 24.9321L37.7655 26.4807C37.7655 26.4807 37.9874 26.8053 38.0471 27.0438C38.1137 27.3105 38.0886 27.4759 38.0471 27.7477C37.8767 28.8628 35.9354 29.7185 35.9354 29.7185L32.1344 38.7283L29.7412 38.4467Z" fill="#C6C4C4" stroke="black"/>
<path d="M25.2363 52.947L28.8965 41.5441H30.7266L25.5178 53.7917C25.5178 53.7917 25.2884 53.5606 25.2363 53.3693C25.1929 53.2102 25.2363 52.947 25.2363 52.947Z" fill="#C6C4C4" stroke="black"/>
<path d="M34.1054 18.597C35.1708 16.2721 37.3903 14.7636 39.7365 15.7815C42.1473 16.8275 42.5458 20.0207 41.4258 22.398C40.3569 24.6667 38.2646 26.0028 35.9355 25.0728C33.4805 24.0925 33.0041 21.0002 34.1054 18.597Z" fill="#E86E16"/>
<path d="M41.7075 22.2572L59.0231 27.4659" stroke="#E86E16"/>
<path d="M41.9886 20.5679L53.3915 19.4417" stroke="#E86E16"/>
<path d="M41.848 18.4563L57.615 10.5728" stroke="#E86E16"/>
<path d="M41.144 16.7669L47.9013 9.02417" stroke="#E86E16"/>
<path d="M39.1732 15.5L43.6781 1" stroke="#E86E16"/>
<path d="M37.0614 15.5001L36.4983 5.64575" stroke="#E86E16"/>
<path d="M35.3725 16.6263L27.7705 2.8302" stroke="#E86E16"/>
<path d="M34.2461 18.1748L25.5179 10.8544" stroke="#E86E16"/>
<path d="M33.683 19.8642L17.3529 13.9515" stroke="#E86E16"/>
<path d="M33.5425 21.4127L21.9988 22.1166" stroke="#E86E16"/>
<path d="M33.9647 23.1021L20.7317 29.5778" stroke="#E86E16"/>
<path d="M41.0034 23.9465L49.8723 31.83" stroke="#E86E16"/>
</svg>

<svg width="60" height="70" fill="none" xmlns="http://www.w3.org/2000/svg"><path fill-rule="evenodd" clip-rule="evenodd" d="M16.93 23.383c-2.166 0-3.237 2.339-3.237 4.505 0 2.167 1.071 4.505 3.237 4.505 2.167 0 3.238-2.338 3.238-4.505 0-2.166-1.07-4.505-3.238-4.505zm0 1.549c-1.354-.097-1.86 1.599-1.83 2.956.03 1.311.522 2.912 1.83 2.816 1.252-.092 1.523-1.561 1.549-2.816.026-1.303-.249-2.863-1.549-2.956z" fill="#214C9E"/><path d="M5.105 46.33c-.33-.29 0-1.126 0-1.126s3.25-2.752 4.927-4.787c1.677-2.034 3.66-5.63 3.66-5.63s1.042-.29.986.422C14.28 40.242 6.091 46.33 6.091 46.33s-.696.254-.986 0zM7.908 65.228c-.652-.077-.753-1.317-.753-1.317s2.658-5.793 3.619-9.5c.96-3.706 1.792-9.489 1.792-9.489s1.01-1.3 1.408-.422c2.816 6.199-4.701 19.947-4.701 19.947s-.794.847-1.365.78z" fill="#214C9E"/><path d="M16.72 68.856c-.646.119-1.107-1.037-1.107-1.037s.843-6.318.675-10.144c-.169-3.825-1.07-9.597-1.07-9.597s.585-1.539 1.223-.817c4.51 5.1 1.354 20.449 1.354 20.449s-.51 1.043-1.076 1.146zM24.25 40.136c-2.964-.395-6.193-4.505-6.193-4.505s-.507.17-.704.422c-.339.434 0 1.408 0 1.408s4.113 4.172 7.46 4.224c1.694.026 4.224-.986 4.224-.986.563 0 1.22.371 1.83 0 .548-.333.61-.938.845-1.408 0 0-1.632-.064-2.675 0-1.894.118-2.905 1.096-4.786.845z" fill="#214C9E"/><path d="m29.741 38.447 3.66-10.277s-.374-.124-.563-.282c-.633-.528 0-2.111 0-2.111s.032-.372.141-.563c.098-.172.422-.282.422-.282l4.364 1.549s.222.324.282.563c.067.267.042.432 0 .704-.17 1.115-2.112 1.97-2.112 1.97l-3.8 9.01-2.394-.281zM25.236 52.947l3.66-11.403h1.83l-5.208 12.248s-.23-.231-.282-.423c-.043-.159 0-.422 0-.422z" fill="#C6C4C4" stroke="#000"/><path d="M34.105 18.597c1.066-2.325 3.285-3.833 5.632-2.816 2.41 1.046 2.809 4.24 1.689 6.617-1.07 2.269-3.161 3.605-5.49 2.675-2.456-.98-2.932-4.073-1.83-6.476z" fill="#E86E16"/><path d="m41.708 22.257 17.315 5.209M41.989 20.568l11.403-1.126M41.848 18.456l15.767-7.883M41.144 16.767l6.757-7.743M39.173 15.5 43.678 1M37.061 15.5l-.563-9.854M35.373 16.626 27.77 2.83M34.246 18.175l-8.728-7.32M33.683 19.864l-16.33-5.913M33.542 21.413 22 22.117M33.965 23.102l-13.233 6.476M41.003 23.947l8.87 7.883" stroke="#E86E16"/></svg>
